X: 1
T: Cat On The Roof, The
M: 4/4
L: 1/8
R: reel
K: Dmaj
|: ~F2FE DEFD | EG,G,G, EG, (3G,G,G, | F2FE DEFA | (3Bcd ec dBAG |
~F2FE DEFD | EG,G,G, EG~G2 | F2FE DEFA | cdec d3e :|
|:fd~d2 dfaf | edcd efge | fddc dfaf | gfeg fd (3ddd |
fddc df~a2 | edcd efge | dfaf ~g2ag | faeg fdd2 :|
